X:290
T:Rock And The Wee Pickle Tow, The 
C:Joe Buchanan's Scottish Tome - Page 325.1
I:325 1
R:Jig
Z:Carl Allison
L:1/8
M:6/8
K:A
E |"A" E>FG A>Bc |"F#m" c<ac "E7"(B2 f) |"A" e>cA "D"(c2 B) |"A" c>BA (A2 E) |
"A"E>FG A>Bc |"F#m" c<ac "E7"(B2 f) |"A" e>cA "E7"c2 B | "A"c>BA A2 :|
a | "D" f2 a f2 a | "D" f<af f>ec | "A" e>fe "E7" e>fg | "F#m" g<ae "A" c>BA |
"D" d>cd "A/C#" e>ce | f<ac "E7"(B2 f) | "F#m" e>cA "E7" (c2 A) | "A" c>BA A2 :|

